X:1
T:Les bancs publics
C:Georges Brassens, abc file by Bernard Loffet
L:1/8
Q:360
M:9/8
K:C
[B2E,2]B[B2E,2]B[B2E,2]B|[B2E,2]B[G2E,2]B[d2E,2]c|[B2B,2]A[A2B,2]A[c2B,2]B|[A3B,3]B,3B,3|[B2E,2]B[B2E,2]B[B2E,2]B|[B2E,2]c[d2E,2]e[d2E,2]c|[B3E,3]E,3E,3| \
E,3E,3E,3|[A2F,2]A[A2F,2]A[A2F,2]A|[A2F,2]A[F2F,2]A[c2F,2]B|[A2E,2]G[G2E,2]G[B2E,2]A|[G3E,3]E,3E,3|[A2A,2]B[c2A,2]d[c2A,2]B|[A2D,2]B[c2D,2]d[B2D,2]A| \
[G3G,3]G,3G,3|G,3G,2G[A2G,2]B|[c2A,2]B[A2A,2]c[B2A,2]A|[B2E,2]A[G3E,3]E,3|[c2A,2]B[A3A,3]A,3|[B2E,2]A[G3E,3]E,3|[A2F,2]G[F2F,2]G[A2F,2]c|[G2C,2]F[E3C,3]C,3| \
[F2G,2]E[D3G,3][G3G,3]|[E3C,3][C2C,2]G[A2A,2]B|[c2A,2]e[e2A,2]e[e2A,2]e|[B2E,2]A[G3E,3]E,3|[c2A,2]B[A3A,3]A,3|[B2E,2]A[G3E,3]E,3|[A2F,2]G[F2F,2]G[A2F,2]c| \
[G2C,2]F[E3C,3]C,2G|[D2G,2]E[F2G,2]G[A2G,2]B|[c3C,3]C,3C,3| \
K:G
Z:Created with TablEdit http://www.tabledit.com/
